X:1
T:Dan, LMD
T:Dan, LMD
T:Hubert Platt Main, 1901
T:Public Domain Courtesy of the Cyber Hymnal™
C:Hubert Platt Main, 1901
Z:Public Domain
Z:Courtesy of the Cyber Hymnal™
%%score ( 1 2 ) ( 3 4 )
L:1/8
Q:1/4=100
M:4/4
K:Eb
V:1 treble 
V:2 treble 
V:3 bass 
V:4 bass 
V:1
 [EG]2 | [EG]3 [EG] (^FG) (AG) | [^Fc]3 [GB] [EB]2 [EB]2 | [EB]3 [EB] (=AB) (cB) | %4
 [Fe]3 [Fd] [Fd]2 [Ee]2 | [Ec]3 [Fc] (=Bc) ([Fd][Ec]) | [Ee]3 [FB] [EB]2 [EA]2 | %7
 [EG]2 [Ec]2 [EB]2 [CE]2 | [EG]4 [DF]4 x2 | E6 [EG]2 | [DF]3 [EG] [FA][GB][Ac][Fd] | %11
 [Ge]4 [EB]2 [EG]2 | [FA]3 [GB] [Fd][Ac][GB][FA] | [EG]4 [EB]2 [EB]2 | %14
 [Ec]3 [Ec] [D=B][Ec] [Ae]>[Ac] | [GB]4 [EG]2 [EB]2 | [Ec]2 [Ec]2 [EB]2 E2 | [EG]4 [DF]4 x2 | E6 |] %19
V:2
 x2 | x4 E2 E2 | x8 | x4 E2 E2 | x8 | x4 F2 x2 | x8 | x8 | x10 | E6 x2 | x8 | x8 | x8 | x8 | x8 | %15
 x8 | x6 E2 | x10 | E6 |] %19
V:3
 [E,B,]2 | [E,B,]3 [E,B,] (=A,B,) (CB,) | [E,=A,]3 [E,B,] [E,G,]2 [E,G,]2 | %3
 [G,B,]3 [G,B,] ([^F,C][G,B,])A,[G,B,] | [C,=A,]3 [B,,B,] [B,,B,]2 [G,B,]2 | %5
 A,3 [A,C] (DC) (=B,C) | [C,C]3 [D,A,] [E,G,]2 [C,A,]2 | [B,,B,]2 [A,,F,]2 [G,,B,]2 [C,G,]2 | %8
 B,6 z2 A,2 | [E,G,]6 [E,B,]2 | [B,,B,]3 [B,,B,] [B,,B,]2 [B,,B,]2 | %11
 [E,B,]2 [E,B,]2 [E,G,]2 [E,B,]2 | [B,,B,]3 [B,,B,] [B,,B,]2 [B,,B,]2 | %13
 [E,B,]2 [E,B,]2 [E,G,]2 [E,G,]2 | [A,,A,]3 [A,,A,] [A,,A,][A,,A,] [A,,C]>[A,,E] | E4 B,2 [E,G,]2 | %16
 [A,,A,]2 [A,,A,]2 [E,G,]2 [C,G,]2 | B,6 z2 A,2 | [E,G,]6 |] %19
V:4
 x2 | x4 E,2 E,2 | x8 | x6 A, x | x8 | A,3 G,2 G,2 x | x8 | x8 | B,,4 B,,4 x2 | x8 | x8 | x8 | x8 | %13
 x8 | x8 | E,6 x2 | x8 | B,,4 B,,4 x2 | x6 |] %19

